X:16
T: Musikanten-Vierzeiler 1, S. 70
N: S0079
O: Luxemburg
S: Die Bauernhochzeit in frheren Zeiten]
R: Hochzeitslied, Brautlied]
M: 2/4
L: 1/16
K: C
EF | G2G2G2G2 | A3AA2
A2 | B2B2c2d2 | e4z2
EF | G2G2G2G2 | A3AA2
A2 | B2B2e2d2 | c4z2

